Papirus-Dark/16x16/extra/clementine/as_disabled.svg

<?xml version="1.0" encoding="UTF-8" standalone="no"?>
<!--Created with Inkscape (http://www.inkscape.org/)-->
<svg xmlns:dc="http://purl.org/dc/elements/1.1/" xmlns:cc="http://creativecommons.org/ns#" xmlns:rdf="http://www.w3.org/1999/02/22-rdf-syntax-ns#" xmlns:svg="http://www.w3.org/2000/svg" xmlns="http://www.w3.org/2000/svg" xmlns:sodipodi="http://sodipodi.sourceforge.net/DTD/sodipodi-0.dtd" xmlns:inkscape="http://www.inkscape.org/namespaces/inkscape" id="svg2817" height="16" width="16" version="1.0" inkscape:version="0.91 r13725" sodipodi:docname="as_disabled.svg">
    <sodipodi:namedview pagecolor="#ffffff" bordercolor="#666666" borderopacity="1" objecttolerance="10" gridtolerance="10" guidetolerance="10" inkscape:pageopacity="0" inkscape:pageshadow="2" inkscape:window-width="1600" inkscape:window-height="847" id="namedview1683" showgrid="false" inkscape:zoom="14.52" inkscape:cx="-6.084022" inkscape:cy="8" inkscape:window-x="0" inkscape:window-y="0" inkscape:window-maximized="1" inkscape:current-layer="svg2817"/>
    <defs id="defs1678">
        <clipPath id="clipPath-920380656">
            <g id="g17" transform="translate(0,-1004.4)">
                <path id="path19" d="m -24,13 c 0,1.105 -0.672,2 -1.5,2 -0.828,0 -1.5,-0.895 -1.5,-2 0,-1.105 0.672,-2 1.5,-2 0.828,0 1.5,0.895 1.5,2 z" transform="matrix(15.333,0,0,11.5,415,878.86)" inkscape:connector-curvature="0" style="fill:#1890d0"/>
            </g>
        </clipPath>
    </defs>
    <metadata id="metadata57">
        <rdf:RDF>
            <cc:Work rdf:about="">
                <dc:format>
                    image/svg+xml
                </dc:format>
                <dc:type rdf:resource="http://purl.org/dc/dcmitype/StillImage"/>
                <dc:title/>
            </cc:Work>
        </rdf:RDF>
    </metadata>
    <path style="fill:#ffffff;fill-opacity:1;opacity:0.3" d="M 8 1 C 4.122 1 1 4.122 1 8 C 1 11.878 4.122 15 8 15 C 11.878 15 15 11.878 15 8 C 15 4.122 11.878 1 8 1 z M 6.4960938 5.0019531 C 7.0342226 5.0206339 7.5693445 5.2260779 7.9980469 5.6386719 C 8.3286348 5.9563344 8.4749275 6.2278225 8.9726562 7.4296875 C 9.4922395 8.6865807 9.5874873 8.8831955 9.7558594 9.0507812 C 9.936236 9.2289975 10.104014 9.2890625 10.423828 9.2890625 C 10.94926 9.2890625 11.324219 8.9582824 11.324219 8.4980469 C 11.324219 8.1084725 11.189601 7.9842675 10.501953 7.7363281 C 9.4547835 7.3526943 9.1164656 7.0068407 9.1152344 6.3105469 C 9.1152344 5.9391068 9.2078847 5.6902876 9.4433594 5.4335938 C 9.7813348 5.0671562 10.363017 4.9469381 10.878906 5.1289062 C 11.09899 5.2083219 11.560547 5.6217362 11.560547 5.7402344 C 11.560547 5.7977638 11.292588 5.9740412 11.144531 6.015625 C 11.066348 6.0362606 11.000345 6.0097325 10.910156 5.921875 C 10.727317 5.7436588 10.603619 5.6875 10.384766 5.6875 C 10.007083 5.6875 9.7714844 5.9183249 9.7714844 6.2910156 C 9.7714844 6.6624557 9.921731 6.7878382 10.666016 7.0429688 C 11.691639 7.3947113 11.993844 7.7141551 12 8.4492188 C 12.006156 9.0842312 11.724277 9.5414238 11.164062 9.8125 C 10.909196 9.9347501 10.822409 9.9511719 10.40625 9.9511719 C 9.8121767 9.9499212 9.545941 9.8381638 9.2128906 9.4570312 C 8.9891128 9.2006501 8.7625113 8.7194145 8.0351562 6.9628906 C 7.7335025 6.2350181 7.3450041 5.8786656 6.6992188 5.7382812 C 6.3720167 5.6673074 5.9161773 5.7337468 5.6191406 5.8925781 C 5.3294914 6.0464068 5.0061894 6.3935876 4.8535156 6.7109375 C 4.7273135 6.9685693 4.7167969 7.0402395 4.7167969 7.4882812 C 4.7167969 7.9156875 4.7323118 8.0174581 4.8378906 8.2519531 C 4.9979518 8.6099488 5.31387 8.9389713 5.6601562 9.1171875 C 5.9104058 9.2453781 5.9874892 9.2617188 6.3867188 9.2617188 C 6.77025 9.2617188 6.8689534 9.2438068 7.0976562 9.1328125 C 7.3586791 9.0033713 7.710384 8.6851999 7.8535156 8.4472656 L 7.9277344 8.3242188 L 8.0742188 8.6660156 C 8.1560962 8.8542369 8.2226563 9.0306087 8.2226562 9.0625 C 8.2226562 9.1566107 7.8900538 9.4645894 7.5859375 9.65625 C 7.1242225 9.9457732 6.5937141 10.052774 6.0273438 9.9746094 L 6.0273438 9.9765625 C 5.8672826 9.9546763 5.5824969 9.8604381 5.3925781 9.7675781 C 4.1551819 9.165395 3.6483488 7.6486225 4.2578125 6.3710938 C 4.6929789 5.4581266 5.5992124 4.9708184 6.4960938 5.0019531 z " id="rect4255-5"/>
    <g id="g45" transform="matrix(0.30781,0,0,0.31266,0.66419992,0.494365)">
        <g id="g47" clip-path="url(#clipPath-920380656)">
<!--color: #e4383e-->
        </g>
    </g>
</svg>

<?xml version="1.0" encoding="UTF-8" standalone="no"?>
<!--Created with Inkscape (http://www.inkscape.org/)-->

<svg
   xmlns:dc="http://purl.org/dc/elements/1.1/"
   xmlns:cc="http://creativecommons.org/ns#"
   xmlns:rdf="http://www.w3.org/1999/02/22-rdf-syntax-ns#"
   xmlns:svg="http://www.w3.org/2000/svg"
   xmlns="http://www.w3.org/2000/svg"
   xmlns:sodipodi="http://sodipodi.sourceforge.net/DTD/sodipodi-0.dtd"
   xmlns:inkscape="http://www.inkscape.org/namespaces/inkscape"
   id="svg2817"
   height="16"
   width="16"
   version="1.0"
   inkscape:version="0.91 r13725"
   sodipodi:docname="as_disabled.svg">
  <sodipodi:namedview
     pagecolor="#ffffff"
     bordercolor="#666666"
     borderopacity="1"
     objecttolerance="10"
     gridtolerance="10"
     guidetolerance="10"
     inkscape:pageopacity="0"
     inkscape:pageshadow="2"
     inkscape:window-width="1600"
     inkscape:window-height="843"
     id="namedview11"
     showgrid="false"
     inkscape:zoom="14.75"
     inkscape:cx="8"
     inkscape:cy="8"
     inkscape:window-x="0"
     inkscape:window-y="0"
     inkscape:window-maximized="1"
     inkscape:current-layer="svg2817" />
  <defs
     id="defs1678">
    <clipPath
       id="clipPath-920380656">
      <g
         id="g17"
         transform="translate(0,-1004.4)">
        <path
           id="path19"
           d="m-24 13c0 1.105-0.672 2-1.5 2s-1.5-0.895-1.5-2 0.672-2 1.5-2 1.5 0.895 1.5 2z"
           transform="matrix(15.333,0,0,11.5,415,878.86)"
           fill="#1890d0" />
      </g>
    </clipPath>
  </defs>
  <metadata
     id="metadata57">
    <rdf:RDF>
      <cc:Work
         rdf:about="">
        <dc:format>image/svg+xml</dc:format>
        <dc:type
           rdf:resource="http://purl.org/dc/dcmitype/StillImage" />
        <dc:title />
      </cc:Work>
    </rdf:RDF>
  </metadata>
  <path
     id="rect4255-5"
     opacity=".3"
     d="m8 1c-3.878 0-7 3.122-7 7s3.122 7 7 7 7-3.122 7-7-3.122-7-7-7zm-1.5039 4.002c0.5381 0.0186 1.0732 0.2241 1.5019 0.6367 0.3306 0.3176 0.4769 0.5891 0.9747 1.791 0.5195 1.2569 0.6148 1.4535 0.7832 1.6211 0.1803 0.1782 0.3481 0.2383 0.6681 0.2383 0.525 0 0.9-0.3308 0.9-0.7911 0-0.3895-0.134-0.5137-0.822-0.7617-1.0472-0.3836-1.3855-0.7295-1.3868-1.4258 0-0.3714 0.0927-0.6202 0.3282-0.8769 0.3379-0.3664 0.9196-0.4867 1.4356-0.3047 0.22 0.0794 0.682 0.4928 0.682 0.6113 0 0.0576-0.268 0.2338-0.416 0.2754-0.079 0.0207-0.145-0.0059-0.235-0.0937-0.183-0.1782-0.306-0.2344-0.525-0.2344-0.378 0-0.6135 0.2308-0.6135 0.6035 0 0.3715 0.1502 0.4968 0.8945 0.752 1.026 0.3517 1.328 0.6712 1.334 1.4062 0.006 0.635-0.276 1.0922-0.836 1.3633-0.255 0.1223-0.342 0.1387-0.758 0.1387-0.5938-0.0013-0.8601-0.113-1.1931-0.4942-0.2238-0.2563-0.4504-0.7376-1.1777-2.4941-0.3017-0.7279-0.6902-1.0842-1.336-1.2246-0.3272-0.071-0.783-0.0046-1.0801 0.1543-0.2896 0.1538-0.6129 0.501-0.7656 0.8183-0.1262 0.2577-0.1367 0.3293-0.1367 0.7774 0 0.4274 0.0155 0.5292 0.1211 0.7637 0.1601 0.3579 0.476 0.687 0.8223 0.8652 0.2502 0.1282 0.3273 0.1445 0.7265 0.1445 0.3835 0 0.4823-0.0179 0.711-0.1289 0.261-0.1294 0.6127-0.4476 0.7558-0.6855l0.0742-0.1231 0.1465 0.3418c0.0819 0.1882 0.1485 0.3646 0.1485 0.3965 0 0.0941-0.3326 0.4021-0.6368 0.5937-0.4617 0.2896-0.9922 0.3968-1.5586 0.3184v0.002c-0.16-0.0219-0.4448-0.1162-0.6347-0.209-1.2374-0.6022-1.7443-2.119-1.1348-3.3965 0.4352-0.913 1.3414-1.4003 2.2383-1.3691z"
     style="fill:#d3dae3;fill-opacity:1" />
  <g
     id="g45"
     transform="matrix(.30781 0 0 .31266 .66420 .49436)">
    <g
       id="g47"
       clip-path="url(#clipPath-920380656)">
      <!--color: #e4383e-->
    </g>
  </g>
</svg>
